packages/foundations/assets/icons/functional/images/business & payment/shopping_bag_14.svg

<svg width="14" height="14" viewBox="0 0 14 14" fill="none" xmlns="http://www.w3.org/2000/svg">
<g clip-path="url(#clip0_184_106)">
<path fill-rule="evenodd" clip-rule="evenodd" d="M7.00002 1.40002C8.57502 1.40002 9.77802 2.53802 9.80002 4.20002H10.784C11.156 4.20002 11.463 4.48402 11.484 4.85602L11.9 11.856C11.9039 11.9511 11.8888 12.046 11.8555 12.1351C11.8223 12.2242 11.7716 12.3058 11.7064 12.3751C11.6412 12.4444 11.5628 12.5 11.4759 12.5386C11.3889 12.5772 11.2951 12.5981 11.2 12.6H2.80002C2.7049 12.5981 2.61113 12.5772 2.52418 12.5386C2.43724 12.5 2.35887 12.4444 2.29368 12.3751C2.22849 12.3058 2.17778 12.2242 2.14453 12.1351C2.11127 12.046 2.09614 11.9511 2.10002 11.856L2.51602 4.85602C2.52652 4.67785 2.60497 4.51048 2.7352 4.38843C2.86544 4.26638 3.03754 4.19895 3.21602 4.20002H4.19902C4.19902 2.53702 5.42502 1.40002 7.00002 1.40002ZM10.128 5.60002H3.87202L3.54402 11.2H10.456L10.128 5.60002ZM7.00002 2.80002C5.97202 2.80002 5.60002 3.50002 5.60002 4.20002H8.40002C8.40002 3.50002 8.05002 2.80002 7.00002 2.80002ZM7.70002 7.00002V7.70002C7.70137 7.79232 7.68418 7.88395 7.64948 7.96949C7.61478 8.05503 7.56327 8.13273 7.498 8.198C7.43273 8.26327 7.35502 8.31478 7.26948 8.34948C7.18395 8.38419 7.09232 8.40137 7.00002 8.40002C6.90776 8.40123 6.81619 8.38395 6.73072 8.3492C6.64524 8.31445 6.56759 8.26294 6.50235 8.19769C6.43711 8.13245 6.38559 8.0548 6.35084 7.96933C6.31609 7.88385 6.29881 7.79228 6.30002 7.70002V7.00002H4.90002V7.70002C4.90002 8.75002 5.60002 9.80002 7.00002 9.80002C8.40002 9.80002 9.10002 8.75002 9.10002 7.70002V7.00002H7.70002Z" fill="#1A1C1F"/>
</g>
<defs>
<clipPath id="clip0_184_106">
<rect width="14" height="14" fill="white"/>
</clipPath>
</defs>
</svg>

<svg xmlns="http://www.w3.org/2000/svg" width="14" height="14" fill="none"><g clip-path="url(#a)"><path fill="#1A1C1F" fill-rule="evenodd" d="M7 1.4c1.575 0 2.778 1.138 2.8 2.8h.984c.372 0 .679.284.7.656l.416 7a.714.714 0 0 1-.7.744H2.8a.715.715 0 0 1-.7-.744l.416-7a.697.697 0 0 1 .7-.656h.983c0-1.663 1.226-2.8 2.801-2.8m3.128 4.2H3.872l-.328 5.6h6.912zM7 2.8c-1.028 0-1.4.7-1.4 1.4h2.8c0-.7-.35-1.4-1.4-1.4M7.7 7v.7a.69.69 0 0 1-.7.7.69.69 0 0 1-.7-.7V7H4.9v.7c0 1.05.7 2.1 2.1 2.1s2.1-1.05 2.1-2.1V7z" clip-rule="evenodd"/></g><defs><clipPath id="a"><path fill="#fff" d="M0 0h14v14H0z"/></clipPath></defs></svg>
